X: 187
T:The Ivy Leaf
M:4/4
L:1/8
C:Reel
H:Dermy Diamond
K:D %i.e. 2 sharps
A3A3A cdeA | AceA dBGA | A2A2ed cdec | AE~E2 GEDG|!
A2A2ed cdec|(3.A.B.Aec dBGB|A2A2ed cdec|AE~E2 GEDG|!
|:ea{b}ag eA (3.B.c.d|efge d3f|ea{b}ag edcd|AE~E2 GED2|!
ea{b}ag eA (3.B.c.d|efge d3c|
1 A3A3B E3c3d|(3.e.f.gfa gedB:|!
|2 AEAc {d}cBcd| (3.e.f.gfa gedB ||
